icons/svg/ribbon.svg

﻿<?xml version="1.0" encoding="utf-8"?>
<!DOCTYPE svg PUBLIC "-//W3C//DTD SVG 1.1//EN" "http://www.w3.org/Graphics/SVG/1.1/DTD/svg11.dtd">
<svg xmlns="http://www.w3.org/2000/svg" xmlns:xlink="http://www.w3.org/1999/xlink" version="1.1" baseProfile="full" width="24" height="24" viewBox="0 0 24.00 24.00" enable-background="new 0 0 24.00 24.00" xml:space="preserve">
	<path fill="#000000" fill-opacity="1" stroke-width="0.2" stroke-linejoin="round" d="M 13.414,19.3115L 16.585,22.4824L 17.999,21.0684L 14.828,17.8975M 15.535,11.5334L 15.534,11.5344L 11.999,15.0684L 8.465,11.5344L 8.46399,11.5334L 8.46399,11.5334C 7.55899,10.6284 6.99899,9.37842 6.99899,7.99847C 6.99899,5.23645 9.23799,2.99847 11.999,2.99847C 14.761,2.99847 16.999,5.23645 16.999,7.99847C 16.999,9.37842 16.44,10.6284 15.535,11.5334 Z M 16.898,12.9985C 18.195,11.7274 18.999,9.95642 18.999,7.99847C 18.999,4.13245 15.865,0.998474 11.999,0.998474C 8.133,0.998474 4.99899,4.13245 4.99899,7.99847C 4.99899,9.95642 5.80598,11.7255 7.10199,12.9954L 7.09999,12.9985L 10.585,16.4835L 5.99899,21.0684L 7.41299,22.4824L 16.898,12.9985 Z "/>
</svg>

<svg xmlns="http://www.w3.org/2000/svg" version="1.1" baseProfile="full" width="24" height="24" viewBox="0 0 24.00 24.00" xml:space="preserve"><path fill="#000" fill-opacity="1" stroke-width=".2" stroke-linejoin="round" d="M13.414 19.311l3.17 3.172L18 21.068l-3.172-3.17m.707-6.365l-3.536 3.535-3.535-3.534c-.906-.906-1.466-2.156-1.466-3.536 0-2.762 2.238-5 5-5 2.76 0 5 2.238 5 5 0 1.38-.56 2.63-1.465 3.535zM16.898 13c1.297-1.273 2.1-3.044 2.1-5.002 0-3.866-3.133-7-7-7-3.865 0-7 3.134-7 7 0 1.958.808 3.728 2.104 4.997L7.1 13l3.485 3.483L6 21.069l1.413 1.414L16.898 13z"/></svg>
